X: 6577
T: Cathrine's Church Mice
R: reel
M: 4/4
K: Ddorian
|:A2 dB c2 de|dcAG EG~G2|A2 dB cdeg|aged cABG|
A2 dBc2de|dcAG EDEC|D2 EG Addc|Ad^ce d3 z:|
|:f2 fe fgfd|ecBc GAce|f2 fe fgfe|fdec Ad^ce|
dffe fgfd|ecBc GFEC|D2 EG Addc|Ad^ce d3 z:|

